src/images/header_logo_small.svg

<svg width="48" height="48" viewBox="0 0 48 48" fill="none" xmlns="http://www.w3.org/2000/svg">
<rect opacity="0.5" x="11" y="10.2353" width="25" height="26.4706" rx="12.5" fill="#00CC66"/>
<path d="M5.15987 39.7331C7.98306 36.1305 15.454 28.5241 22.7522 26.9193C21.7847 29.8707 20.0758 37.0188 20.9809 42C22.6748 38.0481 29.1053 28.9451 41.2758 24.1479C42.7253 23.1419 45.1705 19.0372 43.3552 10.6668C43.134 10.4458 41.5756 9.74372 37.1116 8.70337C36.5145 8.48647 34.9453 7.72512 33.4458 6.4149C31.5714 4.77713 19.8903 8.37233 17.2049 10.5156C15.2638 10.1498 11.0708 10.0613 9.82829 12.6339C8.58575 15.2065 9.87658 16.3066 10.6773 16.5351C8.54236 17.9954 4.21795 21.3006 4 22.8395C6.48827 21.106 12.2764 17.5831 15.5226 17.3599C14.5513 15.7906 13.633 12.6492 17.7307 12.6379C21.3766 10.5578 29.3834 6.64004 32.2437 7.60938C33.4918 8.33968 36.1103 9.80724 36.5989 9.83509C37.2097 9.86991 40.1063 10.2391 40.1365 10.5981C40.1496 10.7539 39.9383 10.9642 39.7056 11.1957C39.4022 11.4976 39.0625 11.8355 39.1369 12.1358C39.1908 12.3532 39.7502 12.6914 40.3977 13.0828C41.3308 13.6469 42.4468 14.3216 42.4958 14.9043C42.5134 15.1142 42.564 15.3415 42.6167 15.5787C42.8118 16.4568 43.0369 17.4695 41.7333 18.2289C41.5446 18.3389 41.3456 18.4615 41.1399 18.5883C39.5406 19.574 37.5296 20.8136 36.7049 18.325C36.2346 16.9058 36.2197 15.6298 36.2073 14.5733C36.1953 13.5388 36.1856 12.7148 35.7534 12.1726C34.8798 11.0767 32.7134 10.0984 31.0276 10.704C29.679 11.1884 27.9659 12.1582 27.278 12.5825C28.1487 12.9553 29.9577 13.6768 30.2274 13.5799C30.2926 13.5565 30.4533 13.4331 30.6773 13.261C31.6121 12.5432 33.65 10.9783 34.4608 12.2903C35.4659 13.9168 35.6684 14.26 34.9985 15.5869C34.878 15.8254 34.719 16.1054 34.5458 16.4105C33.755 17.8027 32.6675 19.7176 33.5962 20.5973C34.7284 21.6697 37.9062 22.2846 39.8688 20.84C41.4389 19.6844 42.4805 18.8541 42.8051 18.5834C42.6648 20.0128 41.9188 22.9139 40.0574 23.0834C37.7306 23.2952 30.0879 25.3473 29.0431 26.3466C29.0322 24.8406 29.2359 21.4102 30.1372 19.7367C24.6995 20.4729 12.0912 25.5028 5.15987 39.7331Z" fill="white"/>
<path d="M25.9746 13.6054C24.7448 14.4708 22.0115 17.0766 20.9164 20.5761C23.34 19.4513 28.6648 17.3028 30.5745 17.7076C29.2603 17.2245 26.1958 16.4425 24.4516 17.18C24.4426 16.7287 24.7346 15.382 25.9746 13.6054Z" fill="white"/>
<path d="M19.6699 16.343C20.0867 16.0617 20.2688 15.5836 20.0767 15.2751C19.8846 14.9666 19.3911 14.9445 18.9743 15.2258C18.5576 15.5071 18.3755 15.9853 18.5675 16.2938C18.7596 16.6023 19.2532 16.6243 19.6699 16.343Z" fill="white"/>
<path d="M19.1462 20.1031C19.3248 20.3899 19.1318 20.8505 18.715 21.1318C18.2983 21.4131 17.8157 21.4086 17.6371 21.1218C17.4585 20.8349 17.6515 20.3744 18.0683 20.0931C18.485 19.8118 18.9676 19.8162 19.1462 20.1031Z" fill="white"/>
<path d="M14.826 21.5615C15.3836 21.1851 15.642 20.5688 15.403 20.1849C15.164 19.8011 14.5182 19.7951 13.9605 20.1715C13.4029 20.5479 13.1445 21.1642 13.3835 21.5481C13.6225 21.9319 14.2683 21.9379 14.826 21.5615Z" fill="white"/>
<path d="M9.94232 22.4642C10.2316 22.9289 9.96409 23.6445 9.34475 24.0625C8.72541 24.4806 7.98881 24.4428 7.6995 23.9781C7.41019 23.5134 7.67773 22.7978 8.29707 22.3798C8.91641 21.9618 9.65301 21.9995 9.94232 22.4642Z" fill="white"/>
<path d="M13.0506 26.1125C13.5198 25.7957 13.7115 25.2359 13.4787 24.8621C13.2459 24.4882 12.6768 24.4419 12.2076 24.7586C11.7384 25.0753 11.5467 25.6351 11.7795 26.009C12.0123 26.3829 12.5813 26.4292 13.0506 26.1125Z" fill="white"/>
<path d="M8.94823 29.5394C9.21537 29.9684 9.02145 30.5933 8.51509 30.9351C8.00874 31.2769 7.3817 31.2062 7.11456 30.7771C6.84742 30.348 7.04134 29.7231 7.5477 29.3814C8.05405 29.0396 8.68109 29.1103 8.94823 29.5394Z" fill="white"/>
<path d="M12.6211 36.9424C13.1648 36.5753 13.4113 35.9658 13.1717 35.5809C12.932 35.1959 12.2969 35.1814 11.7532 35.5484C11.2095 35.9154 10.963 36.525 11.2026 36.9099C11.4423 37.2949 12.0774 37.3094 12.6211 36.9424Z" fill="white"/>
<path d="M18.6929 34.7316C18.9685 35.1742 18.6453 35.9021 17.9709 36.3573C17.2966 36.8125 16.5265 36.8226 16.2509 36.38C15.9753 35.9373 16.2985 35.2095 16.9729 34.7543C17.6472 34.2991 18.4173 34.2889 18.6929 34.7316Z" fill="white"/>
<path d="M19.9061 30.9592C20.5117 30.5504 20.8012 29.8953 20.5526 29.4961C20.3041 29.0968 19.6116 29.1046 19.0059 29.5134C18.4002 29.9222 18.1108 30.5773 18.3593 30.9765C18.6079 31.3758 19.3004 31.368 19.9061 30.9592Z" fill="white"/>
</svg>

<svg width="48" height="48" fill="none" xmlns="http://www.w3.org/2000/svg"><rect opacity=".5" x="11" y="10.235" width="25" height="26.471" rx="12.5" fill="#0C6"/><path d="M5.16 39.733c2.823-3.602 10.294-11.209 17.592-12.814-.967 2.952-2.676 10.1-1.771 15.081 1.694-3.952 8.124-13.055 20.295-17.852 1.45-1.006 3.894-5.11 2.08-13.481-.222-.221-1.78-.923-6.244-1.964-.598-.217-2.167-.978-3.666-2.288-1.875-1.638-13.556 1.957-16.241 4.1-1.941-.365-6.134-.454-7.377 2.119-1.242 2.572.049 3.673.85 3.901-2.136 1.46-6.46 4.766-6.678 6.305 2.488-1.734 8.276-5.257 11.523-5.48-.972-1.57-1.89-4.71 2.208-4.722 3.646-2.08 11.652-5.998 14.513-5.029 1.248.73 3.866 2.198 4.355 2.226.61.035 3.507.404 3.538.763.013.156-.199.366-.431.598-.304.302-.644.64-.57.94.055.217.614.555 1.262.947.933.564 2.049 1.239 2.098 1.821.017.21.068.438.12.675.196.878.42 1.89-.883 2.65-.188.11-.387.233-.593.36-1.6.985-3.61 2.225-4.435-.264-.47-1.42-.485-2.695-.498-3.752-.012-1.034-.021-1.858-.454-2.4-.873-1.096-3.04-2.075-4.725-1.469-1.349.484-3.062 1.454-3.75 1.878.87.373 2.68 1.095 2.95.998.065-.024.225-.147.45-.319.934-.718 2.972-2.283 3.783-.97 1.005 1.626 1.207 1.969.538 3.296-.121.238-.28.518-.453.823-.791 1.393-1.879 3.308-.95 4.187 1.132 1.073 4.31 1.688 6.273.243 1.57-1.156 2.611-1.986 2.936-2.257-.14 1.43-.886 4.33-2.748 4.5-2.326.212-9.97 2.264-11.014 3.264-.01-1.506.193-4.937 1.094-6.61-5.438.736-18.046 5.766-24.977 19.996Z" fill="#fff"/><path d="M25.975 13.605c-1.23.866-3.963 3.472-5.059 6.971 2.424-1.125 7.749-3.273 9.659-2.868-1.315-.483-4.38-1.265-6.123-.528-.01-.451.283-1.798 1.523-3.575ZM19.67 16.343c.417-.281.599-.76.407-1.068-.192-.308-.686-.33-1.103-.05-.416.282-.599.76-.407 1.069.193.308.686.33 1.103.049ZM19.146 20.103c.179.287-.014.747-.431 1.029-.417.281-.9.277-1.078-.01-.178-.287.014-.748.431-1.029.417-.281.9-.277 1.078.01ZM14.826 21.561c.558-.376.816-.992.577-1.376-.239-.384-.885-.39-1.443-.013-.557.376-.816.992-.577 1.376.24.384.885.39 1.443.014ZM9.942 22.464c.29.465.022 1.18-.597 1.599-.62.418-1.356.38-1.646-.085-.289-.465-.021-1.18.598-1.598.62-.418 1.356-.38 1.645.084ZM13.05 26.113c.47-.317.661-.877.429-1.25-.233-.375-.802-.421-1.271-.104-.47.316-.661.876-.428 1.25.232.374.801.42 1.27.104ZM8.948 29.54c.267.428.073 1.053-.433 1.395-.506.342-1.133.271-1.4-.158-.268-.429-.074-1.054.433-1.396.506-.341 1.133-.27 1.4.158ZM12.621 36.942c.544-.367.79-.976.55-1.361-.239-.385-.874-.4-1.418-.033-.543.367-.79.977-.55 1.362.24.385.874.4 1.418.032ZM18.693 34.732c.275.442-.048 1.17-.722 1.625-.674.456-1.445.466-1.72.023-.276-.443.047-1.17.722-1.626.674-.455 1.444-.465 1.72-.022ZM19.906 30.96c.606-.41.895-1.065.647-1.464-.249-.4-.941-.391-1.547.017-.606.41-.895 1.064-.647 1.463.249.4.941.392 1.547-.017Z" fill="#fff"/></svg>
